X:15004
T:Schottische from Lima
R:Schottische
O:Sweden
M:4/4
C:e. Kalle Alml\"of
K:DDor
A>B cd e2 ef|d2 de c2 c/B/c|\
A>B cd e2 ef|ga/g/ fg a4\
| A>B cd e2 ef|d2 de c2 c/B/c|
d>e fg a>g ec|d2 dc d4::\
a>gef g4|a>fde f4|
e>cAc e>cAc |d>efg a4|\
a>gef g4|a>fde f4|\
e>cAc e>cAc | d2dc d4:|**
